Numix-uTouch/48x48/apps/0ad.svg

<?xml version="1.0" encoding="UTF-8" standalone="no"?>
<svg
   xmlns:dc="http://purl.org/dc/elements/1.1/"
   xmlns:cc="http://creativecommons.org/ns#"
   xmlns:rdf="http://www.w3.org/1999/02/22-rdf-syntax-ns#"
   xmlns:svg="http://www.w3.org/2000/svg"
   xmlns="http://www.w3.org/2000/svg"
   xmlns:sodipodi="http://sodipodi.sourceforge.net/DTD/sodipodi-0.dtd"
   xmlns:inkscape="http://www.inkscape.org/namespaces/inkscape"
   width="48"
   height="48"
   viewBox="0 0 48 48"
   id="svg2"
   version="1.1"
   inkscape:version="0.48.4 r9939"
   sodipodi:docname="Amazon Cloud Reader-read.amazon.com.svg">
  <metadata
     id="metadata35">
    <rdf:RDF>
      <cc:Work
         rdf:about="">
        <dc:format>image/svg+xml</dc:format>
        <dc:type
           rdf:resource="http://purl.org/dc/dcmitype/StillImage" />
      </cc:Work>
    </rdf:RDF>
  </metadata>
  <sodipodi:namedview
     pagecolor="#ffffff"
     bordercolor="#666666"
     borderopacity="1"
     objecttolerance="10"
     gridtolerance="10"
     guidetolerance="10"
     inkscape:pageopacity="0"
     inkscape:pageshadow="2"
     inkscape:window-width="1280"
     inkscape:window-height="998"
     id="namedview33"
     showgrid="false"
     inkscape:zoom="4.9166667"
     inkscape:cx="58.372881"
     inkscape:cy="23.59322"
     inkscape:window-x="0"
     inkscape:window-y="0"
     inkscape:window-maximized="1"
     inkscape:current-layer="svg2" />
  <defs
     id="defs4">
    <radialGradient
       cx="148.004"
       cy="160"
       gradientTransform="matrix(.1831 0 0 .1831 -3.10029 -5.29688)"
       id="radial0"
       r="128"
       gradientUnits="userSpaceOnUse">
      <stop
         offset="0"
         style="stop-color:#dbc199"
         id="stop7" />
      <stop
         offset="1"
         style="stop-color:#8c601f"
         id="stop9" />
    </radialGradient>
  </defs>
  <path
     style="fill:url(#radial0)"
     d="M 47.4375 11.546875 L 47.4375 36.453125 C 47.4375 46.703125 47.4375 47.4375 36.453125 47.4375 L 11.550781 47.4375 C 0.5625 47.4375 0.5625 46.703125 0.5625 36.453125 L 0.5625 11.546875 C 0.5625 1.296875 0.5625 0.5625 11.550781 0.5625 L 36.453125 0.5625 C 47.4375 0.5625 47.4375 1.296875 47.4375 11.546875 Z "
     id="path11" />
  <path
     inkscape:connector-curvature="0"
     id="path15"
     d="m 38.265625,47.4375 c 2.542969,-0.01172 4.378906,-0.08203 5.710937,-0.441406 l -4.230468,-7.25 -4.484375,7.691406 1.191406,0 c 0.640625,0 1.242187,0 1.8125,0 z m 1.480469,-7.691406 -5.125,-8.789063 -5.128906,8.789063 z m 0,0 7.652344,0 c 0.03125,-0.972656 0.03906,-2.0625 0.03906,-3.296875 l 0,-1.097657 -2.5625,-4.394531 z m 5.128906,-8.789063 -5.128906,-8.789062 -5.125,8.789062 z m 0,0 2.5625,0 0,-4.394531 z m -10.253906,0 -5.128906,-8.789062 -5.125,8.789062 z m -10.253906,0 -5.128907,8.789063 10.253907,0 z m 0,0 -5.128907,-8.789062 -5.125,8.789062 z m -10.253907,0 -5.128906,8.789063 10.253906,0 z m 0,0 -5.128906,-8.789062 -5.125,8.789062 z m -10.253906,0 -3.296875,5.648438 c 0,1.167969 0.011719,2.210937 0.039062,3.140625 l 8.382813,0 z m 0,0 -3.296875,-5.648437 0,5.648437 z m 5.125,8.789063 -4.3125,7.394531 c 1.597656,0.292969 3.808594,0.296875 6.878906,0.296875 l 1.921875,0 z m 0,-17.578125 -5.125,-8.789063 -3.296875,5.648438 0,3.140625 z m 0,0 10.253906,0 -5.125,-8.789063 z m 5.128906,-8.789063 -5.128906,-8.789062 -5.125,8.789062 z m 0,0 10.253907,0 -5.128907,-8.789062 z m 5.125,-8.789062 -2.351562,-4.027344 -5.335938,0 c -0.07813,0 -0.140625,0 -0.214843,0 L 8.984375,4.589844 z m 0,0 10.253907,0 -2.351563,-4.027344 -5.550781,0 z m 10.253907,0 10.253906,0 L 37.394531,0.5625 c -0.3125,0 -0.609375,0 -0.941406,0 l -4.609375,0 z m 0,0 -5.125,8.789062 10.253906,0 z m 5.128906,8.789062 10.253906,0 -5.128906,-8.789062 z m 0,0 -5.128906,8.789063 10.253906,0 z m 5.125,8.789063 7.691406,0 0,-4.394531 -2.5625,-4.394532 z m 5.128906,-8.789063 2.5625,0 0,-1.832031 c 0,-0.914063 -0.0078,-1.75 -0.02344,-2.523437 z m -15.382812,8.789063 -5.125,-8.789063 -5.128907,8.789063 z m 10.253906,-17.578125 7.308594,0 C 46.5,1.832031 45.167969,0.960938 42.023438,0.6875 z m -30.761719,0 L 6.679688,0.636719 C 3.019531,0.84375 1.539062,1.632812 0.945312,4.589844 z m -5.125,8.789062 L 0.621094,7.824219 C 0.578125,8.898438 0.5625,10.132812 0.5625,11.546875 l 0,1.832031 z m 15.378906,26.367188 -4.484375,7.691406 8.972656,0 z m 10.253907,0 -4.484376,7.691406 8.972657,0 z M 2.59375,46.367188 0.992188,43.621094 c 0.292968,1.316406 0.785156,2.179687 1.601562,2.746094 z"
     style="fill:#ffffff;fill-opacity:0.05100002" />
  <path
     style="fill:#f9f9f9;fill-opacity:1"
     inkscape:connector-curvature="0"
     id="path30"
     d="M 24,8.9999997 C 15.715729,8.9999997 9,15.7157 9,24 9,32.2843 15.715729,39 24,39 32.284271,39 39,32.2843 39,24 39,15.7157 32.284271,8.9999997 24,8.9999997 z M 22.71875,11.5938 c 0.01269,0 0.268551,-0.028 0.28125,-0.029 l 0,11.4354 -11.406,0 C 12.175091,17.0993 16.823076,12.1927 22.71875,11.594 z M 25,11.565 C 30.913572,12.1473 35.823911,17.0864 36.40625,23 L 25,23 z M 11.59375,25 23,25 23,36.4375 C 17.086428,35.8552 12.176092,30.9136 11.59375,25 z M 25,25 36.40625,25 C 35.823911,30.9136 30.913572,35.8552 25,36.4375 z" />
</svg>

<svg xmlns="http://www.w3.org/2000/svg" viewBox="0 0 48 48"><defs><radialGradient id="0" cx="24" cy="24" r="23.437" gradientUnits="userSpaceOnUse"><stop stop-color="#bb9e69"/><stop offset="1" stop-color="#9b7e49"/></radialGradient></defs><path d="m 47.44 11.547 l 0 24.906 c 0 10.25 0 10.984 -10.984 10.984 l -24.902 0 c -10.988 0 -10.988 -0.734 -10.988 -10.984 l 0 -24.906 c 0 -10.25 0 -10.984 10.988 -10.984 l 24.902 0 c 10.984 0 10.984 0.734 10.984 10.984" fill="url(#0)"/><path d="m 24 9 c -8.285 0 -15 6.715 -15 15 c 0 8.285 6.715 15 15 15 c 8.285 0 15 -6.715 15 -15 c 0 -8.285 -6.715 -15 -15 -15 m -1.281 2.594 c 0.012 0 0.27 -0.027 0.281 -0.027 l 0 11.434 l -11.406 0 c 0.582 -5.902 5.23 -10.809 11.125 -11.406 m 2.281 -0.027 c 5.914 0.582 10.824 5.523 11.406 11.441 l -11.406 0 m -13.406 2 l 11.406 0 l 0 11.438 c -5.914 -0.582 -10.824 -5.523 -11.406 -11.438 m 13.406 0 l 11.406 0 c -0.582 5.906 -5.492 10.852 -11.406 11.438 m 0 -11.438" fill="#fff"/><path d="m 38.27 47.44 c 2.543 -0.012 4.379 -0.082 5.711 -0.441 l -4.23 -7.25 -4.484 7.691 1.191 0 c 0.641 0 1.242 0 1.813 0 z m 1.48 -7.691 -5.125 -8.789 -5.129 8.789 z m 0 0 7.652 0 c 0.031 -0.973 0.039 -2.063 0.039 -3.297 l 0 -1.098 -2.563 -4.395 z m 5.129 -8.789 -5.129 -8.789 -5.125 8.789 z m 0 0 2.563 0 0 -4.395 z m -10.254 0 -5.129 -8.789 -5.125 8.789 z m -10.254 0 -5.129 8.789 10.254 0 z m 0 0 -5.129 -8.789 -5.125 8.789 z m -10.254 0 -5.129 8.789 10.254 0 z m 0 0 -5.129 -8.789 -5.125 8.789 z m -10.254 0 -3.297 5.648 c 0 1.168 0.012 2.211 0.039 3.141 l 8.383 0 z m 0 0 -3.297 -5.648 0 5.648 z m 5.125 8.789 -4.313 7.395 c 1.598 0.293 3.809 0.297 6.879 0.297 l 1.922 0 z m 0 -17.578 -5.125 -8.789 -3.297 5.648 0 3.141 z m 0 0 10.254 0 -5.125 -8.789 z m 5.129 -8.789 -5.129 -8.789 -5.125 8.789 z m 0 0 10.254 0 -5.129 -8.789 z m 5.125 -8.789 -2.352 -4.03 -5.336 0 c -0.078 0 -0.141 0 -0.215 0 l -2.352 4.03 z m 0 0 10.254 0 -2.352 -4.03 -5.551 0 z m 10.254 0 10.254 0 l -2.352 -4.03 c -0.313 0 -0.609 0 -0.941 0 l -4.609 0 z m 0 0 -5.125 8.789 10.254 0 z m 5.129 8.789 10.254 0 -5.129 -8.789 z m 0 0 -5.129 8.789 10.254 0 z m 5.125 8.789 7.691 0 0 -4.395 -2.563 -4.395 z m 5.129 -8.789 2.563 0 0 -1.832 c 0 -0.914 -0.008 -1.75 -0.023 -2.523 z m -15.383 8.789 -5.125 -8.789 -5.129 8.789 z m 10.254 -17.578 7.309 0 c -0.555 -2.758 -1.887 -3.629 -5.03 -3.902 z m -30.762 0 l -2.305 -3.953 c -3.66 0.207 -5.141 0.996 -5.734 3.953 z m -5.125 8.789 l -3.238 -5.555 c -0.043 1.074 -0.059 2.309 -0.059 3.723 l 0 1.832 z m 15.379 26.367 -4.484 7.691 8.973 0 z m 10.254 0 -4.484 7.691 8.973 0 z m -26.898 6.621 -1.602 -2.746 c 0.293 1.316 0.785 2.18 1.602 2.746 z" fill="#fff" fill-opacity="0.082"/></svg>
